svg/fluentui-system-icons/ic_fluent_desktop_flow_20_regular.svg

<svg width="20" height="20" viewBox="0 0 20 20" fill="none" xmlns="http://www.w3.org/2000/svg">
<path d="M14.0854 2H4C2.89543 2 2 2.89543 2 4V13C2 14.1046 2.89543 15 4 15H7V17H5.5C5.22386 17 5 17.2239 5 17.5C5 17.7761 5.22386 18 5.5 18H14.5C14.7761 18 15 17.7761 15 17.5C15 17.2239 14.7761 17 14.5 17H13V15H16C17.1046 15 18 14.1046 18 13V7H17V13C17 13.5523 16.5523 14 16 14H4C3.44772 14 3 13.5523 3 13V4C3 3.44772 3.44772 3 4 3H14V2.5C14 2.32468 14.0301 2.15639 14.0854 2ZM12 17H8V15H12V17ZM15 2.5C15 2.22386 15.2239 2 15.5 2H18.5C18.7761 2 19 2.22386 19 2.5V5.5C19 5.77614 18.7761 6 18.5 6H15.5C15.2239 6 15 5.77614 15 5.5V5H14.2208C14.0055 5 13.8145 5.13772 13.7464 5.34189L13.2023 6.97434C12.9981 7.58685 12.4249 8 11.7792 8H11V9.5C11 9.77614 10.7761 10 10.5 10H7.5C7.22386 10 7 9.77614 7 9.5V6.5C7 6.22386 7.22386 6 7.5 6H10.5C10.7761 6 11 6.22386 11 6.5V7H11.7792C11.9945 7 12.1855 6.86228 12.2536 6.65811L12.7977 5.02566C13.0019 4.41315 13.5751 4 14.2208 4H15V2.5ZM10 7H8V9H10V7ZM16 5H18V3H16V5Z" fill="#212121"/>
</svg>

<svg xmlns="http://www.w3.org/2000/svg" width="20" height="20"><path d="M14.085 2H4a2 2 0 0 0-2 2v9a2 2 0 0 0 2 2h3v2H5.5a.5.5 0 0 0 0 1h9a.5.5 0 0 0 0-1H13v-2h3a2 2 0 0 0 2-2V7h-1v6a1 1 0 0 1-1 1H4a1 1 0 0 1-1-1V4a1 1 0 0 1 1-1h10v-.5c0-.175.03-.344.085-.5ZM12 17H8v-2h4v2Zm3-14.5a.5.5 0 0 1 .5-.5h3a.5.5 0 0 1 .5.5v3a.5.5 0 0 1-.5.5h-3a.5.5 0 0 1-.5-.5V5h-.78a.5.5 0 0 0-.474.342l-.544 1.632A1.5 1.5 0 0 1 11.78 8H11v1.5a.5.5 0 0 1-.5.5h-3a.5.5 0 0 1-.5-.5v-3a.5.5 0 0 1 .5-.5h3a.5.5 0 0 1 .5.5V7h.78a.5.5 0 0 0 .474-.342l.544-1.632A1.5 1.5 0 0 1 14.22 4H15V2.5ZM10 7H8v2h2V7Zm6-2h2V3h-2v2Z"/></svg>
